application/resources/assets/images/svg/ic_player_rewind_10.svg

<?xml version="1.0" encoding="UTF-8" standalone="no"?>
<!-- Created with Inkscape (http://www.inkscape.org/) -->

<svg
   xmlns:dc="http://purl.org/dc/elements/1.1/"
   xmlns:cc="http://creativecommons.org/ns#"
   xmlns:rdf="http://www.w3.org/1999/02/22-rdf-syntax-ns#"
   xmlns:svg="http://www.w3.org/2000/svg"
   xmlns="http://www.w3.org/2000/svg"
   xmlns:sodipodi="http://sodipodi.sourceforge.net/DTD/sodipodi-0.dtd"
   xmlns:inkscape="http://www.inkscape.org/namespaces/inkscape"
   width="36px"
   height="36px"
   viewBox="0 0 36 36"
   version="1.1"
   id="SVGRoot"
   inkscape:version="0.92.5 (2060ec1f9f, 2020-04-08)"
   sodipodi:docname="ic_player_rewind_10.svg">
  <defs
     id="defs2412" />
  <sodipodi:namedview
     id="base"
     pagecolor="#ffffff"
     bordercolor="#666666"
     borderopacity="1.0"
     inkscape:pageopacity="0.0"
     inkscape:pageshadow="2"
     inkscape:zoom="8"
     inkscape:cx="0.824931"
     inkscape:cy="26.957925"
     inkscape:document-units="px"
     inkscape:current-layer="layer1"
     showgrid="true"
     inkscape:window-width="960"
     inkscape:window-height="1043"
     inkscape:window-x="850"
     inkscape:window-y="27"
     inkscape:window-maximized="0"
     inkscape:grid-bbox="true"
     inkscape:snap-grids="true"
     inkscape:snap-page="true">
    <inkscape:grid
       type="xygrid"
       id="grid2968"
       originx="0"
       originy="0" />
  </sodipodi:namedview>
  <metadata
     id="metadata2415">
    <rdf:RDF>
      <cc:Work
         rdf:about="">
        <dc:format>image/svg+xml</dc:format>
        <dc:type
           rdf:resource="http://purl.org/dc/dcmitype/StillImage" />
        <dc:title></dc:title>
      </cc:Work>
    </rdf:RDF>
  </metadata>
  <g
     inkscape:label="Layer 1"
     inkscape:groupmode="layer"
     id="layer1">
    <path
       style="opacity:1;fill:#000000;fill-opacity:1;stroke:none;stroke-width:2;stroke-linecap:round;stroke-linejoin:round;stroke-miterlimit:4;stroke-dasharray:none;stroke-dashoffset:0;stroke-opacity:1;paint-order:markers fill stroke"
       d="m 17.263672,4.0253906 c -0.20283,-0.00415 -0.398769,0.074085 -0.542969,0.2167969 l -4.25,4.2265625 c -0.29459,0.292524 -0.295443,0.768868 -0.002,1.0625 l 4.251953,4.248047 C 17.193523,14.250065 17.99974,13.91527 18,13.248047 V 10 c 4.418278,0 8,3.581722 8,8 0,4.418278 -3.581722,8 -8,8 -4.418278,0 -8,-3.581722 -8,-8 H 8 c 0,5.522847 4.477153,10 10,10 5.522847,0 10,-4.477153 10,-10 C 28,12.477153 23.522847,8 18,8 V 4.7753906 c 3e-5,-0.40886 -0.327528,-0.7425 -0.736328,-0.75 z"
       id="path2737"
       inkscape:connector-curvature="0"
       sodipodi:nodetypes="cccccccssccssccc" />
  </g>
</svg>

<?xml version="1.0" encoding="UTF-8" standalone="no"?>
<!-- Created with Inkscape (http://www.inkscape.org/) -->

<svg
   xmlns:dc="http://purl.org/dc/elements/1.1/"
   xmlns:cc="http://creativecommons.org/ns#"
   xmlns:rdf="http://www.w3.org/1999/02/22-rdf-syntax-ns#"
   xmlns:svg="http://www.w3.org/2000/svg"
   xmlns="http://www.w3.org/2000/svg"
   xmlns:sodipodi="http://sodipodi.sourceforge.net/DTD/sodipodi-0.dtd"
   xmlns:inkscape="http://www.inkscape.org/namespaces/inkscape"
   width="36px"
   height="36px"
   viewBox="0 0 36 36"
   version="1.1"
   id="SVGRoot"
   inkscape:version="0.92.4 (5da689c313, 2019-01-14)"
   sodipodi:docname="ic_player_rewind_10.svg">
  <defs
     id="defs2412" />
  <sodipodi:namedview
     id="base"
     pagecolor="#ffffff"
     bordercolor="#666666"
     borderopacity="1.0"
     inkscape:pageopacity="0.0"
     inkscape:pageshadow="2"
     inkscape:zoom="8"
     inkscape:cx="23.324931"
     inkscape:cy="26.957925"
     inkscape:document-units="px"
     inkscape:current-layer="layer1"
     showgrid="true"
     inkscape:window-width="960"
     inkscape:window-height="1043"
     inkscape:window-x="850"
     inkscape:window-y="27"
     inkscape:window-maximized="0"
     inkscape:grid-bbox="true"
     inkscape:snap-grids="true"
     inkscape:snap-page="true">
    <inkscape:grid
       type="xygrid"
       id="grid2968"
       originx="0"
       originy="0" />
  </sodipodi:namedview>
  <metadata
     id="metadata2415">
    <rdf:RDF>
      <cc:Work
         rdf:about="">
        <dc:format>image/svg+xml</dc:format>
        <dc:type
           rdf:resource="http://purl.org/dc/dcmitype/StillImage" />
        <dc:title></dc:title>
      </cc:Work>
    </rdf:RDF>
  </metadata>
  <g
     inkscape:label="Layer 1"
     inkscape:groupmode="layer"
     id="layer1">
    <path
       style="opacity:1;fill:#000000;fill-opacity:1;stroke:none;stroke-width:2;stroke-linecap:round;stroke-linejoin:round;stroke-miterlimit:4;stroke-dasharray:none;stroke-dashoffset:0;stroke-opacity:1;paint-order:markers fill stroke"
       d="M 17.263672 4.0253906 C 17.060842 4.0212426 16.864903 4.0994755 16.720703 4.2421875 L 12.470703 8.46875 C 12.176113 8.761274 12.17526 9.237618 12.46875 9.53125 L 16.720703 13.779297 C 17.193523 14.250065 17.99974 13.91527 18 13.248047 L 18 10 A 8 8 0 0 1 26 18 A 8 8 0 0 1 18 26 A 8 8 0 0 1 10 18 L 8 18 A 10 10 0 0 0 18 28 A 10 10 0 0 0 28 18 A 10 10 0 0 0 18 8 L 18 4.7753906 C 18.00003 4.3665306 17.672472 4.0328906 17.263672 4.0253906 z M 16.498047 15.5 L 16.470703 15.511719 L 14 16.5 L 14 18 L 15 17.599609 L 15 22 L 16.5 22 L 16.5 17 L 16.5 15.5 L 16.498047 15.5 z M 20.25 15.5 C 19.0035 15.5 18 16.5035 18 17.75 L 18 19.75 C 18 20.9965 19.0035 22 20.25 22 C 21.4965 22 22.5 20.9965 22.5 19.75 L 22.5 17.75 C 22.5 16.5035 21.4965 15.5 20.25 15.5 z M 20.25 17 C 20.6655 17 21 17.3345 21 17.75 L 21 19.75 C 21 20.1655 20.6655 20.5 20.25 20.5 C 19.8345 20.5 19.5 20.1655 19.5 19.75 L 19.5 17.75 C 19.5 17.3345 19.8345 17 20.25 17 z "
       id="path2737" />
  </g>
</svg>
